MA1T1/101/aimg/sol2.svg

<svg clip-rule="evenodd" fill-rule="evenodd" stroke-linejoin="round" stroke-miterlimit="2" viewBox="0 0 59 57" xmlns="http://www.w3.org/2000/svg"><g fill-rule="nonzero"><path d="m12.658 34.468c-1.758-4.808-1.457-9.513.944-13.884 2.782-5.063 7.143-8.193 12.925-9.207 3.873-.679 7.562-.116 10.987 1.756 3.144 1.718 5.577 4.231 7.288 7.394 1.931 3.571 2.777 7.378 2.119 11.42-.963 5.907-4.028 10.254-9.447 13.023-8.64 4.415-19.184.572-23.776-7.959-.44-.817-.71-1.726-1.04-2.543" fill="#fdba11"/><path d="m41.1 19.39c0 3.55-5.197 6.428-11.608 6.428s-11.607-2.878-11.607-6.428 5.196-6.428 11.607-6.428 11.608 2.878 11.608 6.428" fill="#ffe26a"/><path d="m36.143 53.865c.758-3.091 2.757-4.427 4.961-5.676 2.188-1.24 4.344-2.283 7.078-1.513-.482-2.534.087-4.701 1.202-6.79 1.11-2.083 2.753-3.608 4.946-4.79-1.932-2.009-2.99-4.175-2.747-6.806.248-2.66 1.474-4.779 3.823-6.356-2.489-1.095-4.514-2.46-5.837-4.779-1.39-2.437-.83-4.804-.044-7.22-.986.392-1.908.726-2.803 1.12-1.234.543-2.482.443-3.711.087-1.098-.318-1.902-.984-2.332-2.13-.593-1.575-1.249-3.119-1.084-4.852-.179.009-.243-.008-.277.017-.443.322-.883.646-1.32.976-2.631 1.986-5.343 2.07-8.094.29-1.332-.863-2.611-1.807-4.011-2.782-.191.545-.348 1.063-.553 1.561-.97 2.358-2.573 4.104-5.082 4.76-1.752.458-3.586.593-5.387.282-1.211-.208-2.385-.628-3.631-.968 1.213 2.759 1.206 5.622-.343 8.157-1.576 2.579-4.076 3.999-7.489 3.732.336.323.438.446.564.538 3.406 2.503 4.014 5.842 1.619 9.271-.735 1.052-1.625 1.995-2.294 2.805.989.561 2.037 1.163 3.09 1.755 2.27 1.279 3.244 3.462 2.628 5.953-.254 1.028-.549 2.046-.847 3.151 1.959-.081 3.757-.228 5.554-.213 2.65.022 5.458 2.802 5.619 5.482.06.996.042 1.996.063 3.172.824-.543 1.432-1.01 2.097-1.371 2.741-1.482 5.719-1.957 8.573-.795 2.069.843 4.392 1.5 6.069 3.932m-10.21-53.635c.271.262.521.41.633.629 1.448 2.828 4.004 4.084 6.89 4.831 1.408.365 2.59-.41 3.654-1.14.927-.637 1.658-1.557 2.477-2.352.189-.184.379-.367.62-.601.586.664.455 1.383.463 2.068.017 1.356-.154 2.696.384 4.044.843 2.112 2.505 3.027 4.9 2.357 1.457-.408 2.806-1.206 4.202-1.833.231-.103.451-.229.803-.411-.309 1.487-.566 2.804-.858 4.112-.79 3.548.884 6.848 4.24 8.25 1.154.483 2.345.871 3.807 1.409-.73.458-1.262.877-1.861 1.152-3.106 1.422-5.098 6.77-2.292 10.196.852 1.04 1.756 2.036 2.734 3.167-.345.057-.631.146-.916.143-1.285-.017-2.407.465-3.265 1.344-1.737 1.782-3.339 3.709-3.391 6.37-.024 1.234.232 2.475.376 3.712.028.246.129.484.249.914-.77-.317-1.357-.558-1.943-.798-1.409-.579-2.799-.511-4.138.189-1.162.607-2.302 1.254-3.441 1.902-2.028 1.153-2.959 2.999-3.263 5.23-.065.476-.119.952-.217 1.752-.353-.45-.577-.644-.684-.888-.89-2.024-2.367-3.38-4.487-4.029-.262-.08-.579-.134-.757-.313-1.568-1.574-3.556-1.217-5.444-1.158-2.078.066-3.729 1.138-5.194 2.533-1.123 1.07-1.225 1.129-2.421 1.543.172-1.61.434-3.217.497-4.833.109-2.829-2.476-5.356-5.291-5.279-.986.027-1.975.055-2.958.136-1.467.12-2.934.279-4.271 1.244-.247-.772.211-1.153.517-1.529 1.001-1.236 1.432-2.695 1.761-4.202.349-1.599-.178-2.858-1.377-3.956-1.298-1.19-2.882-1.779-4.486-2.31-.583-.192-1.278-.045-2.079-.055.174-.71.678-.877 1.131-1.129 1.706-.948 3.181-2.123 4.04-3.962 1.177-2.518.57-5.148-1.615-6.898-.897-.719-1.746-1.5-2.599-2.271-.19-.172-.308-.424-.613-.858 1.002.087 1.793.106 2.567.233 4.848.791 8.672-2.842 7.833-8.406-.114-.75-.43-1.47-.662-2.202-.193-.609-.401-1.214-.696-2.101 1.234.469 2.173.746 3.039 1.169 2.507 1.228 5.103 1.105 7.702.525 1.993-.445 3.085-2.003 3.934-3.702.487-.976.792-2.042 1.207-3.056.115-.282.328-.524.559-.882" fill="#231f20"/><path d="m47.75 24.449c-1.327-4.21-3.157-7.117-5.769-9.471-3.283-2.958-7.157-4.544-11.607-4.851-4.051-.28-7.716.775-11.103 2.855-3.011 1.849-5.252 4.446-6.833 7.62-2.788 5.599-2.437 11.213.234 16.656 2.397 4.882 6.272 8.198 11.584 9.812 3.694 1.123 7.339 1.223 11.007.106 4.374-1.333 7.78-4.02 10.262-7.816 1.35-2.064 2.51-4.287 2.706-6.809.235-3.009.292-6.027-.481-8.102m-11.607 29.416c-1.677-2.432-4-3.089-6.069-3.932-2.854-1.162-5.832-.687-8.573.795-.665.361-1.272.828-2.097 1.371-.021-1.176-.003-2.176-.063-3.172-.161-2.68-2.968-5.46-5.619-5.482-1.797-.015-3.595.132-5.554.213.298-1.105.593-2.123.847-3.151.616-2.491-.358-4.674-2.628-5.953-1.053-.592-2.101-1.194-3.09-1.755.669-.81 1.559-1.753 2.294-2.805 2.395-3.429 1.787-6.768-1.619-9.271-.126-.092-.228-.215-.564-.538 3.413.267 5.913-1.153 7.489-3.732 1.549-2.535 1.556-5.398.343-8.157 1.246.34 2.42.76 3.631.968 1.801.311 3.635.176 5.387-.282 2.509-.656 4.112-2.402 5.082-4.76.205-.498.362-1.016.554-1.561 1.399.975 2.678 1.919 4.01 2.782 2.751 1.78 5.463 1.696 8.094-.29.437-.33.877-.654 1.32-.976.034-.025.099-.008.277-.017-.165 1.733.491 3.277 1.084 4.852.43 1.146 1.234 1.812 2.332 2.13 1.229.356 2.477.456 3.711-.087.895-.394 1.817-.728 2.803-1.12-.786 2.416-1.346 4.783.044 7.22 1.323 2.319 3.348 3.684 5.837 4.779-2.349 1.577-3.575 3.696-3.823 6.356-.243 2.631.815 4.797 2.747 6.806-2.193 1.182-3.836 2.707-4.946 4.79-1.114 2.089-1.684 4.256-1.202 6.79-2.734-.77-4.89.273-7.078 1.513-2.204 1.249-4.203 2.585-4.961 5.676" fill="#ffd900"/><g fill="#231f20"><path d="m12.658 34.468c.33.817.6 1.726 1.04 2.543 4.592 8.531 15.136 12.374 23.776 7.959 5.419-2.769 8.484-7.116 9.447-13.023.658-4.042-.188-7.849-2.119-11.42-1.711-3.163-4.144-5.676-7.288-7.394-3.425-1.872-7.114-2.435-10.987-1.756-5.782 1.014-10.143 4.144-12.925 9.207-2.401 4.371-2.702 9.076-.944 13.884m35.092-10.019c.773 2.076.716 5.093.481 8.102-.197 2.522-1.356 4.745-2.706 6.81-2.482 3.795-5.888 6.482-10.263 7.815-3.667 1.117-7.312 1.018-11.006-.105-5.312-1.615-9.187-4.93-11.584-9.813-2.671-5.442-3.022-11.057-.234-16.655 1.581-3.175 3.822-5.772 6.833-7.62 3.387-2.08 7.052-3.135 11.103-2.856 4.45.308 8.324 1.894 11.607 4.852 2.612 2.353 4.442 5.26 5.769 9.47"/><path d="m22.528 39.244c-.28.116-.477.198-.686.285-.418-.763-.11-1.367.091-1.92.177-.481.917-.345.989.174.13.953.764 1.409 1.326 1.88 1.549 1.299 3.232 1.93 5.108 1.956 1.5.021 2.907-.181 4.266-.725 1.442-.578 2.656-1.514 3.652-2.791.665-.851.676-1.574.059-2.729.714-.471 1.405-.227 2.032.344.395.359.832.82.395 1.605-.288-.227-.559-.441-.858-.678-.005.008-.08.089-.101.19-.324 1.503-1.336 2.422-2.188 3.453-.361.437-.967.609-1.461.903-2.611 1.554-5.436 1.891-8.463.93-1.568-.497-2.898-1.568-4.161-2.877"/><path d="m27.094 22.172c0 1.377-.602 2.494-1.343 2.494-.742 0-1.344-1.117-1.344-2.494 0-1.378.602-2.494 1.344-2.494.741 0 1.343 1.116 1.343 2.494"/><path d="m34.385 21.212c0 1.378-.601 2.494-1.343 2.494-.741 0-1.343-1.116-1.343-2.494 0-1.377.602-2.494 1.343-2.494.742 0 1.343 1.117 1.343 2.494"/></g></g></svg>

<?xml version="1.0" encoding="UTF-8" standalone="no"?>
<!DOCTYPE svg PUBLIC "-//W3C//DTD SVG 1.1//EN" "http://www.w3.org/Graphics/SVG/1.1/DTD/svg11.dtd">
<svg width="100%" height="100%" viewBox="0 0 59 57" version="1.1" xmlns="http://www.w3.org/2000/svg" xmlns:xlink="http://www.w3.org/1999/xlink" xml:space="preserve" xmlns:serif="http://www.serif.com/" style="fill-rule:evenodd;clip-rule:evenodd;stroke-linejoin:round;stroke-miterlimit:2;">
    <g>
        <path d="M12.658,34.468C10.9,29.66 11.201,24.955 13.602,20.584C16.384,15.521 20.745,12.391 26.527,11.377C30.4,10.698 34.089,11.261 37.514,13.133C40.658,14.851 43.091,17.364 44.802,20.527C46.733,24.098 47.579,27.905 46.921,31.947C45.958,37.854 42.893,42.201 37.474,44.97C28.834,49.385 18.29,45.542 13.698,37.011C13.258,36.194 12.988,35.285 12.658,34.468" style="fill:rgb(253,186,17);fill-rule:nonzero;"/>
        <path d="M41.1,19.39C41.1,22.94 35.903,25.818 29.492,25.818C23.081,25.818 17.885,22.94 17.885,19.39C17.885,15.84 23.081,12.962 29.492,12.962C35.903,12.962 41.1,15.84 41.1,19.39" style="fill:rgb(255,226,106);fill-rule:nonzero;"/>
        <path d="M36.143,53.865C36.901,50.774 38.9,49.438 41.104,48.189C43.292,46.949 45.448,45.906 48.182,46.676C47.7,44.142 48.269,41.975 49.384,39.886C50.494,37.803 52.137,36.278 54.33,35.096C52.398,33.087 51.34,30.921 51.583,28.29C51.831,25.63 53.057,23.511 55.406,21.934C52.917,20.839 50.892,19.474 49.569,17.155C48.179,14.718 48.739,12.351 49.525,9.935C48.539,10.327 47.617,10.661 46.722,11.055C45.488,11.598 44.24,11.498 43.011,11.142C41.913,10.824 41.109,10.158 40.679,9.012C40.086,7.437 39.43,5.893 39.595,4.16C39.416,4.169 39.352,4.152 39.318,4.177C38.875,4.499 38.435,4.823 37.998,5.153C35.367,7.139 32.655,7.223 29.904,5.443C28.572,4.58 27.293,3.636 25.893,2.661C25.702,3.206 25.545,3.724 25.34,4.222C24.37,6.58 22.767,8.326 20.258,8.982C18.506,9.44 16.672,9.575 14.871,9.264C13.66,9.056 12.486,8.636 11.24,8.296C12.453,11.055 12.446,13.918 10.897,16.453C9.321,19.032 6.821,20.452 3.408,20.185C3.744,20.508 3.846,20.631 3.972,20.723C7.378,23.226 7.986,26.565 5.591,29.994C4.856,31.046 3.966,31.989 3.297,32.799C4.286,33.36 5.334,33.962 6.387,34.554C8.657,35.833 9.631,38.016 9.015,40.507C8.761,41.535 8.466,42.553 8.168,43.658C10.127,43.577 11.925,43.43 13.722,43.445C16.372,43.467 19.18,46.247 19.341,48.927C19.401,49.923 19.383,50.923 19.404,52.099C20.228,51.556 20.836,51.089 21.501,50.728C24.242,49.246 27.22,48.771 30.074,49.933C32.143,50.776 34.466,51.433 36.143,53.865M25.933,0.23C26.204,0.492 26.454,0.64 26.566,0.859C28.014,3.687 30.57,4.943 33.456,5.69C34.864,6.055 36.046,5.28 37.11,4.55C38.037,3.913 38.768,2.993 39.587,2.198C39.776,2.014 39.966,1.831 40.207,1.597C40.793,2.261 40.662,2.98 40.67,3.665C40.687,5.021 40.516,6.361 41.054,7.709C41.897,9.821 43.559,10.736 45.954,10.066C47.411,9.658 48.76,8.86 50.156,8.233C50.387,8.13 50.607,8.004 50.959,7.822C50.65,9.309 50.393,10.626 50.101,11.934C49.311,15.482 50.985,18.782 54.341,20.184C55.495,20.667 56.686,21.055 58.148,21.593C57.418,22.051 56.886,22.47 56.287,22.745C53.181,24.167 51.189,29.515 53.995,32.941C54.847,33.981 55.751,34.977 56.729,36.108C56.384,36.165 56.098,36.254 55.813,36.251C54.528,36.234 53.406,36.716 52.548,37.595C50.811,39.377 49.209,41.304 49.157,43.965C49.133,45.199 49.389,46.44 49.533,47.677C49.561,47.923 49.662,48.161 49.782,48.591C49.012,48.274 48.425,48.033 47.839,47.793C46.43,47.214 45.04,47.282 43.701,47.982C42.539,48.589 41.399,49.236 40.26,49.884C38.232,51.037 37.301,52.883 36.997,55.114C36.932,55.59 36.878,56.066 36.78,56.866C36.427,56.416 36.203,56.222 36.096,55.978C35.206,53.954 33.729,52.598 31.609,51.949C31.347,51.869 31.03,51.815 30.852,51.636C29.284,50.062 27.296,50.419 25.408,50.478C23.33,50.544 21.679,51.616 20.214,53.011C19.091,54.081 18.989,54.14 17.793,54.554C17.965,52.944 18.227,51.337 18.29,49.721C18.399,46.892 15.814,44.365 12.999,44.442C12.013,44.469 11.024,44.497 10.041,44.578C8.574,44.698 7.107,44.857 5.77,45.822C5.523,45.05 5.981,44.669 6.287,44.293C7.288,43.057 7.719,41.598 8.048,40.091C8.397,38.492 7.87,37.233 6.671,36.135C5.373,34.945 3.789,34.356 2.185,33.825C1.602,33.633 0.907,33.78 0.106,33.77C0.28,33.06 0.784,32.893 1.237,32.641C2.943,31.693 4.418,30.518 5.277,28.679C6.454,26.161 5.847,23.531 3.662,21.781C2.765,21.062 1.916,20.281 1.063,19.51C0.873,19.338 0.755,19.086 0.45,18.652C1.452,18.739 2.243,18.758 3.017,18.885C7.865,19.676 11.689,16.043 10.85,10.479C10.736,9.729 10.42,9.009 10.188,8.277C9.995,7.668 9.787,7.063 9.492,6.176C10.726,6.645 11.665,6.922 12.531,7.345C15.038,8.573 17.634,8.45 20.233,7.87C22.226,7.425 23.318,5.867 24.167,4.168C24.654,3.192 24.959,2.126 25.374,1.112C25.489,0.83 25.702,0.588 25.933,0.23" style="fill:rgb(35,31,32);fill-rule:nonzero;"/>
        <path d="M47.75,24.449C46.423,20.239 44.593,17.332 41.981,14.978C38.698,12.02 34.824,10.434 30.374,10.127C26.323,9.847 22.658,10.902 19.271,12.982C16.26,14.831 14.019,17.428 12.438,20.602C9.65,26.201 10.001,31.815 12.672,37.258C15.069,42.14 18.944,45.456 24.256,47.07C27.95,48.193 31.595,48.293 35.263,47.176C39.637,45.843 43.043,43.156 45.525,39.36C46.875,37.296 48.035,35.073 48.231,32.551C48.466,29.542 48.523,26.524 47.75,24.449M36.143,53.865C34.466,51.433 32.143,50.776 30.074,49.933C27.22,48.771 24.242,49.246 21.501,50.728C20.836,51.089 20.229,51.556 19.404,52.099C19.383,50.923 19.401,49.923 19.341,48.927C19.18,46.247 16.373,43.467 13.722,43.445C11.925,43.43 10.127,43.577 8.168,43.658C8.466,42.553 8.761,41.535 9.015,40.507C9.631,38.016 8.657,35.833 6.387,34.554C5.334,33.962 4.286,33.36 3.297,32.799C3.966,31.989 4.856,31.046 5.591,29.994C7.986,26.565 7.378,23.226 3.972,20.723C3.846,20.631 3.744,20.508 3.408,20.185C6.821,20.452 9.321,19.032 10.897,16.453C12.446,13.918 12.453,11.055 11.24,8.296C12.486,8.636 13.66,9.056 14.871,9.264C16.672,9.575 18.506,9.44 20.258,8.982C22.767,8.326 24.37,6.58 25.34,4.222C25.545,3.724 25.702,3.206 25.894,2.661C27.293,3.636 28.572,4.58 29.904,5.443C32.655,7.223 35.367,7.139 37.998,5.153C38.435,4.823 38.875,4.499 39.318,4.177C39.352,4.152 39.417,4.169 39.595,4.16C39.43,5.893 40.086,7.437 40.679,9.012C41.109,10.158 41.913,10.824 43.011,11.142C44.24,11.498 45.488,11.598 46.722,11.055C47.617,10.661 48.539,10.327 49.525,9.935C48.739,12.351 48.179,14.718 49.569,17.155C50.892,19.474 52.917,20.839 55.406,21.934C53.057,23.511 51.831,25.63 51.583,28.29C51.34,30.921 52.398,33.087 54.33,35.096C52.137,36.278 50.494,37.803 49.384,39.886C48.27,41.975 47.7,44.142 48.182,46.676C45.448,45.906 43.292,46.949 41.104,48.189C38.9,49.438 36.901,50.774 36.143,53.865" style="fill:rgb(255,217,0);fill-rule:nonzero;"/>
        <path d="M12.658,34.468C12.988,35.285 13.258,36.194 13.698,37.011C18.29,45.542 28.834,49.385 37.474,44.97C42.893,42.201 45.958,37.854 46.921,31.947C47.579,27.905 46.733,24.098 44.802,20.527C43.091,17.364 40.658,14.851 37.514,13.133C34.089,11.261 30.4,10.698 26.527,11.377C20.745,12.391 16.384,15.521 13.602,20.584C11.201,24.955 10.9,29.66 12.658,34.468M47.75,24.449C48.523,26.525 48.466,29.542 48.231,32.551C48.034,35.073 46.875,37.296 45.525,39.361C43.043,43.156 39.637,45.843 35.262,47.176C31.595,48.293 27.95,48.194 24.256,47.071C18.944,45.456 15.069,42.141 12.672,37.258C10.001,31.816 9.65,26.201 12.438,20.603C14.019,17.428 16.26,14.831 19.271,12.983C22.658,10.903 26.323,9.848 30.374,10.127C34.824,10.435 38.698,12.021 41.981,14.979C44.593,17.332 46.423,20.239 47.75,24.449" style="fill:rgb(35,31,32);fill-rule:nonzero;"/>
        <path d="M22.528,39.244C22.248,39.36 22.051,39.442 21.842,39.529C21.424,38.766 21.732,38.162 21.933,37.609C22.11,37.128 22.85,37.264 22.922,37.783C23.052,38.736 23.686,39.192 24.248,39.663C25.797,40.962 27.48,41.593 29.356,41.619C30.856,41.64 32.263,41.438 33.622,40.894C35.064,40.316 36.278,39.38 37.274,38.103C37.939,37.252 37.95,36.529 37.333,35.374C38.047,34.903 38.738,35.147 39.365,35.718C39.76,36.077 40.197,36.538 39.76,37.323C39.472,37.096 39.201,36.882 38.902,36.645C38.897,36.653 38.822,36.734 38.801,36.835C38.477,38.338 37.465,39.257 36.613,40.288C36.252,40.725 35.646,40.897 35.152,41.191C32.541,42.745 29.716,43.082 26.689,42.121C25.121,41.624 23.791,40.553 22.528,39.244" style="fill:rgb(35,31,32);fill-rule:nonzero;"/>
        <path d="M27.094,22.172C27.094,23.549 26.492,24.666 25.751,24.666C25.009,24.666 24.407,23.549 24.407,22.172C24.407,20.794 25.009,19.678 25.751,19.678C26.492,19.678 27.094,20.794 27.094,22.172" style="fill:rgb(35,31,32);fill-rule:nonzero;"/>
        <path d="M34.385,21.212C34.385,22.59 33.784,23.706 33.042,23.706C32.301,23.706 31.699,22.59 31.699,21.212C31.699,19.835 32.301,18.718 33.042,18.718C33.784,18.718 34.385,19.835 34.385,21.212" style="fill:rgb(35,31,32);fill-rule:nonzero;"/>
    </g>
</svg>
